src/assets/img/icons/duotone-icons/Communication/Mail-locked.svg

<?xml version="1.0" encoding="UTF-8"?>
<svg width="24px" height="24px" viewBox="0 0 24 24" version="1.1" xmlns="http://www.w3.org/2000/svg" xmlns:xlink="http://www.w3.org/1999/xlink">
    <!-- Generator: Sketch 52.2 (67145) - http://www.bohemiancoding.com/sketch -->
    <title>Stockholm-icons / Communication / Mail-locked</title>
    <desc>Created with Sketch.</desc>
    <g id="Stockholm-icons-/-Communication-/-Mail-locked" stroke="none" stroke-width="1" fill="none" fill-rule="evenodd">
        <rect id="bound" x="0" y="0" width="24" height="24"></rect>
        <path d="M12.9835977,18 C12.7263047,14.0909841 9.47412135,11 5.5,11 C4.98630124,11 4.48466491,11.0516454 4,11.1500272 L4,7 C4,5.8954305 4.8954305,5 6,5 L20,5 C21.1045695,5 22,5.8954305 22,7 L22,16 C22,17.1045695 21.1045695,18 20,18 L12.9835977,18 Z M19.1444251,6.83964668 L13,10.1481833 L6.85557487,6.83964668 C6.4908718,6.6432681 6.03602525,6.77972206 5.83964668,7.14442513 C5.6432681,7.5091282 5.77972206,7.96397475 6.14442513,8.16035332 L12.6444251,11.6603533 C12.8664074,11.7798822 13.1335926,11.7798822 13.3555749,11.6603533 L19.8555749,8.16035332 C20.2202779,7.96397475 20.3567319,7.5091282 20.1603533,7.14442513 C19.9639747,6.77972206 19.5091282,6.6432681 19.1444251,6.83964668 Z" id="Combined-Shape" fill="#335EEA"></path>
        <path d="M8,17 C8.55228475,17 9,17.4477153 9,18 L9,21 C9,21.5522847 8.55228475,22 8,22 L3,22 C2.44771525,22 2,21.5522847 2,21 L2,18 C2,17.4477153 2.44771525,17 3,17 L3,16.5 C3,15.1192881 4.11928813,14 5.5,14 C6.88071187,14 8,15.1192881 8,16.5 L8,17 Z M5.5,15 C4.67157288,15 4,15.6715729 4,16.5 L4,17 L7,17 L7,16.5 C7,15.6715729 6.32842712,15 5.5,15 Z" id="Mask" fill="#335EEA" opacity="0.3"></path>
    </g>
</svg>

<svg width="24" height="24" viewBox="0 0 24 24" xmlns="http://www.w3.org/2000/svg"><g fill="none" fill-rule="evenodd"><path d="M0 0h24v24H0z"/><path d="M12.984 18A7.5 7.5 0 004 11.15V7a2 2 0 012-2h14a2 2 0 012 2v9a2 2 0 01-2 2h-7.016zm6.16-11.16L13 10.148 6.856 6.84a.75.75 0 10-.712 1.32l6.5 3.5c.222.12.49.12.712 0l6.5-3.5a.75.75 0 00-.712-1.32z" fill="#335EEA"/><path d="M8 17a1 1 0 011 1v3a1 1 0 01-1 1H3a1 1 0 01-1-1v-3a1 1 0 011-1v-.5a2.5 2.5 0 115 0v.5zm-2.5-2A1.5 1.5 0 004 16.5v.5h3v-.5A1.5 1.5 0 005.5 15z" fill="#335EEA" opacity=".3"/></g></svg>
